X: 100330
T: LIGHTFOOT HORNPIPE
C: By J.B. Easton, Edinburgh
R: hornpipe, reel
B: K\"ohler's Violin Repository, v.3, 1885 p.323 #3
F: http://www.archive.org/details/klersviolinrepos03rugg
Z: 2012 John Chambers <jc:trillian.mit.edu>
M: C|
L: 1/8
K: Bb
((3uFGA) |\
B2B2 BFGA | BABc de=ef | (ag)ec (AF)=EF | (GF)Ac (ec)AF |
B2B2 BFGA | BABc de=ef | (ag)ec (Ag)fA | B2b2 B2 :|
|: (uAG) |\
(FA)cA (ec)AF | (BF)dB (gf)dB | (Ac)fa (gb)=eg | f2f2 f=e_ec |
Bdfb Acfa | GBeg | FBdf | (EG)ce (dB)cA | B2b2 B2 :|

%%sep 2 1 500

